X:1
T:Title
%%score { ( 1 3 ) | ( 2 4 ) }
L:1/8
M:4/4
K:F
V:1 treble nm="Grand Piano"
V:3 treble 
V:2 bass 
V:4 bass 
V:1
 z4 z2[Q:1/4=94] FF | AAAA ccFE | DD[DF][DF] C2 FG | AAAA AGFD | [EG]6 FF | AAAA ccFE | %6
 DD[DF][DF] C2 FG | AAcd cA[EG][EG] |[M:3/4] F6 |[M:1/4] A2 |[M:4/4] cccc A3 c |[M:7/8] ddd d c3 | %12
[M:1/8] A |[M:4/4] FFFF E2 F2 | [FA]4 [EG]2 [FA][GB] |[M:3/4] [Ac][Ac] [Ac][Ac] [FA]2 | %16
[M:1/4] [FA][FA] |[M:9/8] [FB][FB][Fc] [Fc] [Fd]2- [Fd][Fd][Fd] |[M:4/4] [Fc][Fc]cc c2 AF | %19
[M:3/4] [EG]4 z2 |] %20
V:2
 z4 z2 [F,A,C][F,A,C] | [F,CF][F,CF][F,CF][F,CF] [F,A,F][F,A,F][F,A,C][F,A,C] | %2
 [B,,F,B,][B,,F,B,][B,,B,][B,,B,] [F,A,]2 [F,A,C][F,B,C] | %3
 [F,CF][F,CF][F,CF][F,CF] [G,=B,D][G,B,D][G,B,D][G,B,] | [C,B,]6 [F,A,C][F,A,C] | %5
 [F,CF][F,CF][F,CF][F,CF] [F,A,F][F,A,F][F,A,C][F,A,C] | %6
 [B,,F,B,][B,,F,B,][B,,B,][B,,B,] [F,A,]2 [F,A,C][F,B,C] | %7
 [F,CF][F,CF][F,A,F][F,B,F] [F,A,F][F,CF][C,B,][C,B,] |[M:3/4] [F,A,C]6 | %9
[M:1/4][K:treble] [F,CF]2 |[M:4/4] [F,A,F][F,A,F][F,A,F][F,A,F] [F,CF]3 [F,A,F] | %11
[M:7/8] [B,F][B,F][B,F] [B,F][K:bass] [F,A,F]3 |[M:1/8] [F,CF] | %13
[M:4/4] [F,A,C][F,A,C][F,A,C][F,A,C] [G,B,C]2 [F,A,C]2 | [C,C]4 [C,C]2 [F,C][F,C] | %15
[M:3/4] [F,F][F,F] [F,F][F,F] [F,C]2 |[M:1/4] [F,C][_E,C] | %17
[M:9/8] [D,B,][D,B,][C,A,] [C,A,] [B,,B,]2- [B,,B,][B,,_A,][B,,A,] | %18
[M:4/4] [C,A,][C,A,][G,B,E][G,B,E] [F,A,F]2 [F,CF][F,A,C] |[M:3/4] C2 z2 [F,A,C]2 |] %20
V:3
 x8 | x8 | x8 | x8 | x8 | x8 | x8 | x8 |[M:3/4] x6 |[M:1/4] x2 |[M:4/4] x8 |[M:7/8] x7 |[M:1/8] x | %13
[M:4/4] x8 | x8 |[M:3/4] x6 |[M:1/4] x2 |[M:9/8] x9 |[M:4/4] x8 |[M:3/4] z2 B,2 F2 |] %20
V:4
 x8 | x8 | x8 | x8 | x8 | x8 | x8 | x8 |[M:3/4] x6 |[M:1/4][K:treble] x2 |[M:4/4] x8 | %11
[M:7/8] x4[K:bass] x3 |[M:1/8] x |[M:4/4] x8 | x8 |[M:3/4] x6 |[M:1/4] x2 |[M:9/8] x9 |[M:4/4] x8 | %19
[M:3/4] C,4 z2 |] %20

